!!!OTL: Goliath und David.
!!!OTL-incipit: HOLT ENMAL EN KLEN BITKEN STILL
!!!ARE: Europa, Mitteleuropa, Deutschland, Westfalen
!!!SCT: Z1048
!!!YEM: Copyright 1995, estate of Helmut Schaffrath.
**kern	**text
*ICvox	*
*M4/4	*
*met(c)	*
*k[f#]	*
*G:	*
!LO:TX:a:t=Aus Weſtphalen.	!
{4d	Holt
=1	=1
4g	en-
4g	-mal
8gL	en
8aJ	.
8bL	klen
8ccJ	.
=2	=2
4dd	Bit-
4d	-ken
4d}	ſtill,
{4dd	hört
=3	=3
4ee	to,
4dd	wat
4cc	ik
4b	ju
=4	=4
4cc	ſag-
4b	-gen
4a}	will,
{4b	wat
=5	=5
(4cc	d'
4b)	Rie-
(4a	-ſe
4g)	.
=6	=6
4f#	Go-
4a	-li-
4d}	-ath
{4b	un_de
=7	=7
(4cc	lüt-
4b)	.
(4a	-ke
4g)	.
=8	=8
4f#	Da-
4a	-vid
4d;}	that;
{4d	Go-
=9	=9
4g	-li-
4a	-ath
4dd	dat
4cc	was'n
=10	=10
4b	grau-
4cc	-ter
4dd}	Mann,
{4cc	da-
=11	=11
4b	-vor
4cc	wär'n
(8ddL	al-
8eeJ)	.
(8ddL	-le
8ccJ)	.
=12	=12
4b/	Lüt'
4a	ſo
4g;}	bang!
==	==
!!!AGN: Romanze, Ballade, Tod
!!!ONB: ESAC (Essen Associative Code) Database: ZUCCAL
!!!AMT: simple quadruple
!!!AIN: vox
!!!EED: Helmut Schaffrath
!!!EEV: 1.0
!!!GTL: II. Gau- Leuschen.
!!!URL-scan: https://www.digitale-sammlungen.de/de/view/bsb11160573?page=113
!!!ENC: Anna Maria Matuszewska
!!!EEV: 2025/03/02
*-	*-
